X:117
M:6/8
L:1/8
K:A
|: eba gfe | fff "tr"f2g | a2g "tr"f2e | d2c "tr"B3 | eba gfe | "tr"f2g a2f | edc BAG | AAA A3 :|

